;FLAVOR:Marlin
;TIME:4276
;Filament used: 1.74873m
;Layer height: 0.085
;Generated with Cura_SteamEngine mb-master-20190319
M82 ;absolute extrusion mode
; Vertex Delta Start Gcode
M0 Is my nozzle clean?
M400
G28 ; Home extruder
M106 S128 ; Start fan
M104 T0 R130 ; Set cold nozzle
M109 T0 R130 ; Wait for cold nozzle
M117 Leveling bed...
G29 ; Level Bed
G1 X0 Y100 Z1 F2000
M107 ; Stop fan
G90 ; Absolute positioning
M82 ; Extruder in absolute mode
M104 T0 S200
G92 E0 ; Reset extruder position
M109 T0 S200
M117 Priming nozzle...
M83
G1 E20 F100 ; purge/prime nozzle
M82
G92 E0 ; Reset extruder position
G4 S3 ; Wait 3 seconds
G1 Z5 F2000
M117 Vertex Delta printing
G92 E0
G1 F9000 E-6
;LAYER_COUNT:450
;LAYER:0
M107
M203 Z25
M204 S2500
M205 X25 Y25
G0 F12000 X8.9 Y14.9 Z0.243
M204 S1000
M205 X15 Y15
;TYPE:SKIRT
G1 F9000 E0
G1 F1800 X8.9 Y15.425 E0.01856
G1 X8.86 Y16.061 E0.0411
G1 X8.741 Y16.686 E0.06359
G1 X8.544 Y17.292 E0.08613
G1 X8.273 Y17.868 E0.10863
G1 X7.932 Y18.406 E0.13116
G1 X7.526 Y18.897 E0.15369
G1 X7.062 Y19.333 E0.1762
G1 X6.547 Y19.708 E0.19873
G1 X5.99 Y20.015 E0.22121
G1 X5.398 Y20.25 E0.24374
G1 X4.781 Y20.409 E0.26627
G1 X4.149 Y20.49 E0.2888
G1 X3.825 Y20.5 E0.30026
G1 X-3.825 Y20.5 E0.57076
G1 X-4.461 Y20.46 E0.59329
G1 X-5.086 Y20.341 E0.61579
G1 X-5.692 Y20.144 E0.63832
G1 X-6.268 Y19.873 E0.66083
G1 X-6.806 Y19.532 E0.68335
G1 X-7.297 Y19.126 E0.70588
G1 X-7.733 Y18.662 E0.72839
G1 X-8.108 Y18.147 E0.75092
G1 X-8.415 Y17.59 E0.77341
G1 X-8.65 Y16.998 E0.79593
G1 X-8.809 Y16.381 E0.81846
G1 X-8.89 Y15.749 E0.84099
G1 X-8.9 Y15.425 E0.85245
G1 X-8.9 Y14.9 E0.87102
G1 X-10 Y14.9 E0.90991
G1 X-10.636 Y14.86 E0.93245
G1 X-11.261 Y14.741 E0.95494
G1 X-11.867 Y14.544 E0.97748
G1 X-12.443 Y14.273 E0.99998
G1 X-12.981 Y13.932 E1.02251
G1 X-13.472 Y13.526 E1.04504
G1 X-13.908 Y13.062 E1.06755
G1 X-14.283 Y12.547 E1.09008
G1 X-14.59 Y11.99 E1.11256
G1 X-14.825 Y11.398 E1.13509
G1 X-14.984 Y10.781 E1.15762
G1 X-15.065 Y10.149 E1.18015
G1 X-15.075 Y9.825 E1.19161
G1 X-15.075 Y-15.425 E2.08444
G1 X-15.035 Y-16.061 E2.10697
G1 X-14.916 Y-16.686 E2.12947
G1 X-14.719 Y-17.292 E2.152
G1 X-14.448 Y-17.868 E2.17451
G1 X-14.107 Y-18.406 E2.19703
G1 X-13.701 Y-18.897 E2.21956
G1 X-13.237 Y-19.333 E2.24207
G1 X-12.722 Y-19.708 E2.2646
G1 X-12.165 Y-20.015 E2.28709
G1 X-11.573 Y-20.25 E2.30961
G1 X-10.956 Y-20.409 E2.33214
G1 X-10.324 Y-20.49 E2.35467
G1 X-10 Y-20.5 E2.36613
G1 X10 Y-20.5 E3.07333
G1 X10.636 Y-20.46 E3.09586
G1 X11.261 Y-20.341 E3.11836
G1 X11.867 Y-20.144 E3.14089
G1 X12.443 Y-19.873 E3.1634
G1 X12.981 Y-19.532 E3.18592
G1 X13.472 Y-19.126 E3.20845
G1 X13.908 Y-18.662 E3.23096
G1 X14.283 Y-18.147 E3.25349
G1 X14.59 Y-17.59 E3.27598
G1 X14.825 Y-16.998 E3.2985
G1 X14.984 Y-16.381 E3.32103
G1 X15.065 Y-15.749 E3.34356
G1 X15.075 Y-15.425 E3.35502
G1 X15.075 Y9.825 E4.24785
G1 X15.035 Y10.461 E4.27039
G1 X14.916 Y11.086 E4.29288
G1 X14.719 Y11.692 E4.31542
G1 X14.448 Y12.268 E4.33792
G1 X14.107 Y12.806 E4.36045
G1 X13.701 Y13.297 E4.38298
G1 X13.237 Y13.733 E4.40549
G1 X12.722 Y14.108 E4.42802
G1 X12.165 Y14.415 E4.4505
G1 X11.573 Y14.65 E4.47303
G1 X10.956 Y14.809 E4.49556
G1 X10.324 Y14.89 E4.51809
G1 X10 Y14.9 E4.52955
G1 X8.9 Y14.9 E4.56844
M204 S2500
M205 X25 Y25
G0 F12000 X8.55 Y14.55
M204 S1000
M205 X15 Y15
G1 F1800 X8.55 Y15.425 E4.59938
G1 X8.51 Y16.038 E4.6211
G1 X8.391 Y16.641 E4.64284
G1 X8.194 Y17.223 E4.66456
G1 X7.924 Y17.775 E4.68629
G1 X7.584 Y18.287 E4.70802
G1 X7.181 Y18.751 E4.72976
G1 X6.721 Y19.158 E4.75147
G1 X6.212 Y19.503 E4.77322
G1 X5.663 Y19.778 E4.79493
G1 X5.082 Y19.98 E4.81668
G1 X4.481 Y20.104 E4.83838
G1 X3.825 Y20.15 E4.86163
G1 X-3.825 Y20.15 E5.13213
G1 X-4.438 Y20.11 E5.15385
G1 X-5.041 Y19.991 E5.17559
G1 X-5.623 Y19.794 E5.19731
G1 X-6.175 Y19.524 E5.21904
G1 X-6.687 Y19.184 E5.24077
G1 X-7.151 Y18.781 E5.26251
G1 X-7.558 Y18.321 E5.28422
G1 X-7.903 Y17.812 E5.30597
G1 X-8.178 Y17.263 E5.32768
G1 X-8.38 Y16.682 E5.34943
G1 X-8.504 Y16.081 E5.37113
G1 X-8.55 Y15.425 E5.39438
G1 X-8.55 Y14.55 E5.42532
G1 X-10 Y14.55 E5.47659
G1 X-10.613 Y14.51 E5.49831
G1 X-11.216 Y14.391 E5.52005
G1 X-11.798 Y14.194 E5.54177
G1 X-12.35 Y13.924 E5.5635
G1 X-12.862 Y13.584 E5.58523
G1 X-13.326 Y13.181 E5.60696
G1 X-13.733 Y12.721 E5.62868
G1 X-14.078 Y12.212 E5.65042
G1 X-14.353 Y11.663 E5.67214
G1 X-14.555 Y11.082 E5.69389
G1 X-14.679 Y10.481 E5.71559
G1 X-14.725 Y9.825 E5.73884
G1 X-14.725 Y-15.425 E6.63167
G1 X-14.685 Y-16.038 E6.65339
G1 X-14.566 Y-16.641 E6.67513
G1 X-14.369 Y-17.223 E6.69685
G1 X-14.099 Y-17.775 E6.71858
G1 X-13.759 Y-18.287 E6.74031
G1 X-13.356 Y-18.751 E6.76204
G1 X-12.896 Y-19.158 E6.78376
G1 X-12.387 Y-19.503 E6.8055
G1 X-11.838 Y-19.778 E6.82722
G1 X-11.257 Y-19.98 E6.84897
G1 X-10.656 Y-20.104 E6.87066
G1 X-10 Y-20.15 E6.89392
G1 X10 Y-20.15 E7.60111
G1 X10.613 Y-20.11 E7.62283
G1 X11.216 Y-19.991 E7.64457
G1 X11.798 Y-19.794 E7.66629
G1 X12.35 Y-19.524 E7.68802
G1 X12.862 Y-19.184 E7.70975
G1 X13.326 Y-18.781 E7.73148
G1 X13.733 Y-18.321 E7.7532
G1 X14.078 Y-17.812 E7.77495
G1 X14.353 Y-17.263 E7.79666
G1 X14.555 Y-16.682 E7.81841
G1 X14.679 Y-16.081 E7.84011
G1 X14.725 Y-15.425 E7.86336
G1 X14.725 Y9.825 E8.75619
G1 X14.685 Y10.438 E8.77791
G1 X14.566 Y11.041 E8.79965
G1 X14.369 Y11.623 E8.82137
G1 X14.099 Y12.175 E8.8431
G1 X13.759 Y12.687 E8.86483
G1 X13.356 Y13.151 E8.88656
G1 X12.896 Y13.558 E8.90828
G1 X12.387 Y13.903 E8.93002
G1 X11.838 Y14.178 E8.95174
G1 X11.257 Y14.38 E8.97349
G1 X10.656 Y14.504 E8.99519
G1 X10 Y14.55 E9.01844
G1 X8.55 Y14.55 E9.06971
M204 S2500
M205 X25 Y25
G0 F12000 X8.2 Y15.425
M204 S1000
M205 X15 Y15
G1 F1800 X8.16 Y16.015 E9.09062
G1 X8.041 Y16.594 E9.11152
G1 X7.845 Y17.152 E9.13243
G1 X7.575 Y17.678 E9.15334
G1 X7.237 Y18.163 E9.17424
G1 X6.837 Y18.598 E9.19514
G1 X6.381 Y18.975 E9.21606
G1 X5.879 Y19.288 E9.23698
G1 X5.34 Y19.529 E9.25786
G1 X4.772 Y19.696 E9.27879
G1 X4.188 Y19.785 E9.29968
G1 X3.825 Y19.8 E9.31253
G1 X-3.825 Y19.8 E9.58303
G1 X-4.415 Y19.76 E9.60394
G1 X-4.994 Y19.641 E9.62484
G1 X-5.552 Y19.445 E9.64575
G1 X-6.078 Y19.175 E9.66666
G1 X-6.563 Y18.837 E9.68756
G1 X-6.998 Y18.437 E9.70846
G1 X-7.375 Y17.981 E9.72938
G1 X-7.688 Y17.479 E9.7503
G1 X-7.929 Y16.94 E9.77117
G1 X-8.096 Y16.372 E9.79211
G1 X-8.185 Y15.788 E9.813
G1 X-8.2 Y15.425 E9.82584
G1 X-8.2 Y14.2 E9.86916
G1 X-10 Y14.2 E9.9328
G1 X-10.59 Y14.16 E9.95372
G1 X-11.169 Y14.041 E9.97462
G1 X-11.727 Y13.845 E9.99553
G1 X-12.253 Y13.575 E10.01644
G1 X-12.738 Y13.237 E10.03734
G1 X-13.173 Y12.837 E10.05823
G1 X-13.55 Y12.381 E10.07916
G1 X-13.863 Y11.879 E10.10007
G1 X-14.104 Y11.34 E10.12095
G1 X-14.271 Y10.772 E10.14189
G1 X-14.36 Y10.188 E10.16277
G1 X-14.375 Y9.825 E10.17562
G1 X-14.375 Y-15.425 E11.06845
G1 X-14.335 Y-16.015 E11.08936
G1 X-14.216 Y-16.594 E11.11026
G1 X-14.02 Y-17.152 E11.13118
G1 X-13.75 Y-17.678 E11.15208
G1 X-13.412 Y-18.163 E11.17299
G1 X-13.012 Y-18.598 E11.19388
G1 X-12.556 Y-18.975 E11.2148
G1 X-12.054 Y-19.288 E11.23572
G1 X-11.515 Y-19.529 E11.2566
G1 X-10.947 Y-19.696 E11.27753
G1 X-10.363 Y-19.785 E11.29842
G1 X-10 Y-19.8 E11.31127
G1 X10 Y-19.8 E12.01846
G1 X10.59 Y-19.76 E12.03937
G1 X11.169 Y-19.641 E12.06027
G1 X11.727 Y-19.445 E12.08118
G1 X12.253 Y-19.175 E12.10209
G1 X12.738 Y-18.837 E12.12299
G1 X13.173 Y-18.437 E12.14389
G1 X13.55 Y-17.981 E12.16481
G1 X13.863 Y-17.479 E12.18573
G1 X14.104 Y-16.94 E12.20661
G1 X14.271 Y-16.372 E12.22754
G1 X14.36 Y-15.788 E12.24843
G1 X14.375 Y-15.425 E12.26128
G1 X14.375 Y9.825 E13.15411
G1 X14.335 Y10.415 E13.17502
G1 X14.216 Y10.994 E13.19592
G1 X14.02 Y11.552 E13.21683
G1 X13.75 Y12.078 E13.23774
G1 X13.412 Y12.563 E13.25864
G1 X13.012 Y12.998 E13.27954
G1 X12.556 Y13.375 E13.30046
G1 X12.054 Y13.688 E13.32138
G1 X11.515 Y13.929 E13.34225
G1 X10.947 Y14.096 E13.36319
G1 X10.363 Y14.185 E13.38408
G1 X10 Y14.2 E13.39692
G1 X8.2 Y14.2 E13.46057
G1 X8.2 Y15.425 E13.50389
M204 S2500
M205 X25 Y25
G0 F12000 X7.85 Y15.425
M204 S1000
M205 X15 Y15
G1 F1800 X7.81 Y15.991 E13.52395
G1 X7.691 Y16.545 E13.54399
G1 X7.495 Y17.077 E13.56403
G1 X7.227 Y17.577 E13.58409
G1 X6.89 Y18.033 E13.60414
G1 X6.493 Y18.438 E13.6242
G1 X6.043 Y18.784 E13.64427
G1 X5.549 Y19.062 E13.66431
G1 X5.021 Y19.268 E13.68435
G1 X4.469 Y19.398 E13.7044
G1 X3.825 Y19.45 E13.72725
G1 X-3.825 Y19.45 E13.99775
G1 X-4.391 Y19.41 E14.01781
G1 X-4.945 Y19.291 E14.03785
G1 X-5.477 Y19.095 E14.0579
G1 X-5.977 Y18.827 E14.07796
G1 X-6.433 Y18.49 E14.09801
G1 X-6.838 Y18.093 E14.11806
G1 X-7.184 Y17.643 E14.13813
G1 X-7.462 Y17.149 E14.15818
G1 X-7.668 Y16.621 E14.17822
G1 X-7.798 Y16.069 E14.19827
G1 X-7.85 Y15.425 E14.22111
G1 X-7.85 Y13.85 E14.27681
G1 X-10 Y13.85 E14.35283
G1 X-10.566 Y13.81 E14.37289
G1 X-11.12 Y13.691 E14.39293
G1 X-11.652 Y13.495 E14.41298
G1 X-12.152 Y13.227 E14.43304
G1 X-12.608 Y12.89 E14.45309
G1 X-13.013 Y12.493 E14.47314
G1 X-13.359 Y12.043 E14.49321
G1 X-13.637 Y11.549 E14.51325
G1 X-13.843 Y11.021 E14.53329
G1 X-13.973 Y10.469 E14.55335
G1 X-14.025 Y9.825 E14.57619
G1 X-14.025 Y-15.425 E15.46902
G1 X-13.985 Y-15.991 E15.48909
G1 X-13.866 Y-16.545 E15.50912
G1 X-13.67 Y-17.077 E15.52917
G1 X-13.402 Y-17.577 E15.54923
G1 X-13.065 Y-18.033 E15.56928
G1 X-12.668 Y-18.438 E15.58933
G1 X-12.218 Y-18.784 E15.60941
G1 X-11.724 Y-19.062 E15.62945
G1 X-11.196 Y-19.268 E15.64949
G1 X-10.644 Y-19.398 E15.66954
G1 X-10 Y-19.45 E15.69239
G1 X10 Y-19.45 E16.39958
G1 X10.566 Y-19.41 E16.41965
G1 X11.12 Y-19.291 E16.43968
G1 X11.652 Y-19.095 E16.45973
G1 X12.152 Y-18.827 E16.47979
G1 X12.608 Y-18.49 E16.49984
G1 X13.013 Y-18.093 E16.51989
G1 X13.359 Y-17.643 E16.53996
G1 X13.637 Y-17.149 E16.56001
G1 X13.843 Y-16.621 E16.58005
G1 X13.973 Y-16.069 E16.6001
G1 X14.025 Y-15.425 E16.62294
G1 X14.025 Y9.825 E17.51578
G1 X13.985 Y10.391 E17.53584
G1 X13.866 Y10.945 E17.55588
G1 X13.67 Y11.477 E17.57592
G1 X13.402 Y11.977 E17.59598
G1 X13.065 Y12.433 E17.61603
G1 X12.668 Y12.838 E17.63609
G1 X12.218 Y13.184 E17.65616
G1 X11.724 Y13.462 E17.6762
G1 X11.196 Y13.668 E17.69624
G1 X10.644 Y13.798 E17.71629
G1 X10 Y13.85 E17.73914
G1 X7.85 Y13.85 E17.81516
G1 X7.85 Y15.425 E17.87086
M204 S2500
M205 X25 Y25
G0 F12000 X7.5 Y15.425
M204 S1000
M205 X15 Y15
G1 F1800 X7.46 Y15.965 E17.89
G1 X7.341 Y16.494 E17.90917
G1 X7.146 Y16.999 E17.92832
G1 X6.878 Y17.471 E17.94751
G1 X6.544 Y17.897 E17.96665
G1 X6.151 Y18.27 E17.98581
G1 X5.707 Y18.581 E18.00498
G1 X5.223 Y18.824 E18.02413
G1 X4.708 Y18.992 E18.04328
G1 X4.174 Y19.083 E18.06244
G1 X3.825 Y19.1 E18.07479
G1 X-3.825 Y19.1 E18.34529
G1 X-4.365 Y19.06 E18.36444
G1 X-4.894 Y18.941 E18.38361
G1 X-5.399 Y18.746 E18.40275
G1 X-5.871 Y18.478 E18.42195
G1 X-6.297 Y18.144 E18.44109
G1 X-6.67 Y17.751 E18.46025
G1 X-6.981 Y17.307 E18.47941
G1 X-7.224 Y16.823 E18.49856
G1 X-7.392 Y16.308 E18.51772
G1 X-7.483 Y15.774 E18.53687
G1 X-7.5 Y15.425 E18.54923
G1 X-7.5 Y13.5 E18.61729
G1 X-10 Y13.5 E18.70569
G1 X-10.54 Y13.46 E18.72484
G1 X-11.069 Y13.341 E18.74401
G1 X-11.574 Y13.146 E18.76315
G1 X-12.046 Y12.878 E18.78235
G1 X-12.472 Y12.544 E18.80149
G1 X-12.845 Y12.151 E18.82065
G1 X-13.156 Y11.707 E18.83982
G1 X-13.399 Y11.223 E18.85897
G1 X-13.567 Y10.708 E18.87812
G1 X-13.658 Y10.174 E18.89727
G1 X-13.675 Y9.825 E18.90963
G1 X-13.675 Y-15.425 E19.80246
G1 X-13.635 Y-15.965 E19.82161
G1 X-13.516 Y-16.494 E19.84078
G1 X-13.321 Y-16.999 E19.85992
G1 X-13.053 Y-17.471 E19.87911
G1 X-12.719 Y-17.897 E19.89826
G1 X-12.326 Y-18.27 E19.91741
G1 X-11.882 Y-18.581 E19.93658
G1 X-11.398 Y-18.824 E19.95573
G1 X-10.883 Y-18.992 E19.97489
G1 X-10.349 Y-19.083 E19.99404
G1 X-10 Y-19.1 E20.0064
G1 X10 Y-19.1 E20.71359
G1 X10.54 Y-19.06 E20.73274
G1 X11.069 Y-18.941 E20.75191
G1 X11.574 Y-18.746 E20.77105
G1 X12.046 Y-18.478 E20.79024
G1 X12.472 Y-18.144 E20.80938
G1 X12.845 Y-17.751 E20.82854
G1 X13.156 Y-17.307 E20.84771
G1 X13.399 Y-16.823 E20.86686
G1 X13.567 Y-16.308 E20.88602
G1 X13.658 Y-15.774 E20.90517
G1 X13.675 Y-15.425 E20.91753
G1 X13.675 Y9.825 E21.81036
G1 X13.635 Y10.365 E21.8295
G1 X13.516 Y10.894 E21.84868
G1 X13.321 Y11.399 E21.86782
G1 X13.053 Y11.871 E21.88701
G1 X12.719 Y12.297 E21.90615
G1 X12.326 Y12.67 E21.92531
G1 X11.882 Y12.981 E21.94448
G1 X11.398 Y13.224 E21.96363
G1 X10.883 Y13.392 E21.98278
G1 X10.349 Y13.483 E22.00194
G1 X10 Y13.5 E22.01429
G1 X7.5 Y13.5 E22.10269
G1 X7.5 Y15.425 E22.17076
M204 S2500
M205 X25 Y25
G0 F12000 X7.15 Y15.425
M204 S1000
M205 X15 Y15
G1 F1800 X7.11 Y15.939 E22.18899
G1 X6.991 Y16.44 E22.2072
G1 X6.796 Y16.917 E22.22542
G1 X6.53 Y17.359 E22.24366
G1 X6.199 Y17.753 E22.26186
G1 X5.81 Y18.092 E22.2801
G1 X5.374 Y18.367 E22.29833
G1 X4.901 Y18.571 E22.31654
G1 X4.402 Y18.7 E22.33477
G1 X3.825 Y18.75 E22.35525
G1 X-3.825 Y18.75 E22.62575
G1 X-4.339 Y18.71 E22.64398
G1 X-4.84 Y18.591 E22.66218
G1 X-5.317 Y18.396 E22.68041
G1 X-5.759 Y18.13 E22.69865
G1 X-6.153 Y17.799 E22.71684
G1 X-6.492 Y17.41 E22.73509
G1 X-6.767 Y16.974 E22.75332
G1 X-6.971 Y16.501 E22.77153
G1 X-7.1 Y16.002 E22.78975
G1 X-7.15 Y15.425 E22.81023
G1 X-7.15 Y13.15 E22.89068
G1 X-10 Y13.15 E22.99145
G1 X-10.514 Y13.11 E23.00968
G1 X-11.015 Y12.991 E23.02789
G1 X-11.492 Y12.796 E23.04611
G1 X-11.934 Y12.53 E23.06435
G1 X-12.328 Y12.199 E23.08255
G1 X-12.667 Y11.81 E23.10079
G1 X-12.942 Y11.374 E23.11902
G1 X-13.146 Y10.901 E23.13723
G1 X-13.275 Y10.402 E23.15546
G1 X-13.325 Y9.825 E23.17594
G1 X-13.325 Y-15.425 E24.06877
G1 X-13.285 Y-15.939 E24.087
G1 X-13.166 Y-16.44 E24.10521
G1 X-12.971 Y-16.917 E24.12343
G1 X-12.705 Y-17.359 E24.14167
G1 X-12.374 Y-17.753 E24.15987
G1 X-11.985 Y-18.092 E24.17811
G1 X-11.549 Y-18.367 E24.19634
G1 X-11.076 Y-18.571 E24.21455
G1 X-10.577 Y-18.7 E24.23278
G1 X-10 Y-18.75 E24.25326
G1 X10 Y-18.75 E24.96045
G1 X10.514 Y-18.71 E24.97868
G1 X11.015 Y-18.591 E24.99689
G1 X11.492 Y-18.396 E25.01511
G1 X11.934 Y-18.13 E25.03335
G1 X12.328 Y-17.799 E25.05155
G1 X12.667 Y-17.41 E25.06979
G1 X12.942 Y-16.974 E25.08802
G1 X13.146 Y-16.501 E25.10623
G1 X13.275 Y-16.002 E25.12446
G1 X13.325 Y-15.425 E25.14494
G1 X13.325 Y9.825 E26.03777
G1 X13.285 Y10.339 E26.056
G1 X13.166 Y10.84 E26.07421
G1 X12.971 Y11.317 E26.09243
G1 X12.705 Y11.759 E26.11067
G1 X12.374 Y12.153 E26.12886
G1 X11.985 Y12.492 E26.14711
G1 X11.549 Y12.767 E26.16534
G1 X11.076 Y12.971 E26.18355
G1 X10.577 Y13.1 E26.20177
G1 X10 Y13.15 E26.22225
G1 X7.15 Y13.15 E26.32303
G1 X7.15 Y15.425 E26.40347
M204 S2500
M205 X25 Y25
G0 F12000 X6.8 Y15.425
M204 S1000
M205 X15 Y15
G1 F1800 X6.76 Y15.911 E26.42072
G1 X6.641 Y16.384 E26.43796
G1 X6.447 Y16.831 E26.45519
G1 X6.182 Y17.24 E26.47242
G1 X5.854 Y17.6 E26.48964
G1 X5.472 Y17.903 E26.50689
G1 X5.045 Y18.138 E26.52412
G1 X4.586 Y18.301 E26.54134
G1 X4.106 Y18.387 E26.55859
G1 X3.825 Y18.4 E26.56853
G1 X-3.825 Y18.4 E26.83903
G1 X-4.311 Y18.36 E26.85628
G1 X-4.784 Y18.241 E26.87352
G1 X-5.231 Y18.047 E26.89075
G1 X-5.64 Y17.782 E26.90799
G1 X-6 Y17.454 E26.92521
G1 X-6.303 Y17.072 E26.94245
G1 X-6.538 Y16.645 E26.95968
G1 X-6.701 Y16.186 E26.9769
G1 X-6.787 Y15.706 E26.99415
G1 X-6.8 Y15.425 E27.00409
G1 X-6.8 Y12.8 E27.09691
G1 X-10 Y12.8 E27.21006
G1 X-10.486 Y12.76 E27.22731
G1 X-10.959 Y12.641 E27.24455
G1 X-11.406 Y12.447 E27.26178
G1 X-11.815 Y12.182 E27.27902
G1 X-12.175 Y11.854 E27.29624
G1 X-12.478 Y11.472 E27.31348
G1 X-12.713 Y11.045 E27.33071
G1 X-12.876 Y10.586 E27.34793
G1 X-12.962 Y10.106 E27.36518
G1 X-12.975 Y9.825 E27.37512
G1 X-12.975 Y-15.425 E28.26796
G1 X-12.935 Y-15.911 E28.2852
G1 X-12.816 Y-16.384 E28.30245
G1 X-12.622 Y-16.831 E28.31968
G1 X-12.357 Y-17.24 E28.33691
G1 X-12.029 Y-17.6 E28.35413
G1 X-11.647 Y-17.903 E28.37137
G1 X-11.22 Y-18.138 E28.3886
G1 X-10.761 Y-18.301 E28.40583
G1 X-10.281 Y-18.387 E28.42307
G1 X-10 Y-18.4 E28.43302
G1 X10 Y-18.4 E29.14021
G1 X10.486 Y-18.36 E29.15745
G1 X10.959 Y-18.241 E29.1747
G1 X11.406 Y-18.047 E29.19193
G1 X11.815 Y-17.782 E29.20916
G1 X12.175 Y-17.454 E29.22638
G1 X12.478 Y-17.072 E29.24362
G1 X12.713 Y-16.645 E29.26086
G1 X12.876 Y-16.186 E29.27808
G1 X12.962 Y-15.706 E29.29532
G1 X12.975 Y-15.425 E29.30527
G1 X12.975 Y9.825 E30.1981
