;FLAVOR:Marlin
;TIME:2831
;Filament used: 3.3846m
;Layer height: 0.175

;POSTPROCESSED
;ChangeAtZ instances: 1
;Generated with Cura_SteamEngine 3.6.0
M82 ;absolute extrusion mode
; Vertex Delta Start Gcode
M0 Is my nozzle clean?
M400
M104 T0 R130 ; Set cold nozzle
G28 ; Home extruder
M106 S128 ; Start fan
M109 T0 R130 ; Wait for cold nozzle
M117 Leveling bed...
G29 ; Level Bed
G1 X0 Y100 Z1 F2000
;G92 Z0.9 ; Set Z position (SET Z OFFSET HERE -> 1 - OFFSET)
M107 ; Stop fan
G90 ; Absolute positioning
M82 ; Extruder in absolute mode
M104 T0 S200
G92 E0 ; Reset extruder position
M109 T0 S200
M117 Priming nozzle...
M83
G1 E20 F100 ; purge/prime nozzle
M82
G92 E0 ; Reset extruder position
G4 S3 ; Wait 3 seconds
G1 Z5 F2000
M117 Vertex Delta printing
G92 E0
G1 F1800 E-6
;LAYER_COUNT:15

;LAYER:0
M107
M204 S5000
M205 X30 Y30
;MESH:heated-bed-support-pertinax.stl
G0 F6514.3 X0.00 Y24.17 Z0.243
M204 S3000
M205 X20 Y20
;TYPE:WALL-INNER
G1 F1800 E0
G1 F1200 X-.231 Y24.18 E0.00818
G1 X-.465 Y24.214 E0.01654
G1 X-.69 Y24.272 E0.02475
G1 X-.909 Y24.349 E0.03296
G1 X-1.122 Y24.45 E0.0413
G1 X-1.317 Y24.568 E0.04936
G1 X-1.506 Y24.705 E0.05761
G1 X-1.681 Y24.864 E0.06597
G1 X-1.84 Y25.039 E0.07433
G1 X-1.977 Y25.228 E0.08259
G1 X-2.095 Y25.423 E0.09064
G1 X-2.196 Y25.636 E0.09898
G1 X-2.273 Y25.855 E0.10719
G1 X-2.331 Y26.08 E0.1154
G1 X-2.365 Y26.314 E0.12377
G1 X-2.375 Y26.545 E0.13194
G1 X-2.365 Y26.776 E0.14012
G1 X-2.331 Y27.01 E0.14848
G1 X-2.273 Y27.235 E0.15669
G1 X-2.196 Y27.454 E0.1649
G1 X-2.095 Y27.667 E0.17324
G1 X-1.977 Y27.862 E0.1813
G1 X-1.84 Y28.051 E0.18955
G1 X-1.681 Y28.226 E0.19791
G1 X-1.506 Y28.385 E0.20627
G1 X-1.317 Y28.522 E0.21453
G1 X-1.122 Y28.64 E0.22259
G1 X-.909 Y28.741 E0.23092
G1 X-.69 Y28.818 E0.23913
G1 X-.465 Y28.876 E0.24735
G1 X-.231 Y28.91 E0.25571
G1 X0.00 Y28.92 E0.26388
G1 X0.231 Y28.91 E0.27206
G1 X0.465 Y28.876 E0.28042
G1 X0.69 Y28.818 E0.28864
G1 X0.909 Y28.741 E0.29684
G1 X1.122 Y28.64 E0.30518
G1 X1.317 Y28.522 E0.31324
G1 X1.506 Y28.385 E0.32149
G1 X1.681 Y28.226 E0.32985
G1 X1.84 Y28.051 E0.33821
G1 X1.977 Y27.862 E0.34647
G1 X2.095 Y27.667 E0.35453
G1 X2.196 Y27.454 E0.36286
G1 X2.273 Y27.235 E0.37107
G1 X2.331 Y27.01 E0.37929
G1 X2.365 Y26.776 E0.38765
G1 X2.375 Y26.545 E0.39582
G1 X2.365 Y26.314 E0.404
G1 X2.331 Y26.08 E0.41236
G1 X2.273 Y25.855 E0.42058
G1 X2.196 Y25.636 E0.42879
G1 X2.095 Y25.423 E0.43712
G1 X1.977 Y25.228 E0.44518
G1 X1.84 Y25.039 E0.45343
G1 X1.681 Y24.864 E0.46179
G1 X1.506 Y24.705 E0.47016
G1 X1.317 Y24.568 E0.47841
G1 X1.122 Y24.45 E0.48647
G1 X0.909 Y24.349 E0.4948
G1 X0.69 Y24.272 E0.50301
G1 X0.465 Y24.214 E0.51123
G1 X0.231 Y24.18 E0.51959
G1 X0.00 Y24.17 E0.52777
M204 S5000
M205 X30 Y30
G0 F6514.3 X0.00 Y24.52
M204 S3000
M205 X20 Y20
G1 F1200 X-.198 Y24.529 E0.53477
G1 X-.396 Y24.558 E0.54185
G1 X-.588 Y24.607 E0.54886
G1 X-.775 Y24.673 E0.55587
G1 X-.956 Y24.759 E0.56295
G1 X-1.124 Y24.86 E0.56989
G1 X-1.285 Y24.977 E0.57692
G1 X-1.433 Y25.112 E0.58401
G1 X-1.568 Y25.26 E0.59109
G1 X-1.685 Y25.421 E0.59813
G1 X-1.786 Y25.589 E0.60506
G1 X-1.872 Y25.77 E0.61214
G1 X-1.938 Y25.957 E0.61916
G1 X-1.987 Y26.149 E0.62616
G1 X-2.016 Y26.347 E0.63324
G1 X-2.025 Y26.545 E0.64025
G1 X-2.016 Y26.743 E0.64726
G1 X-1.987 Y26.941 E0.65433
G1 X-1.938 Y27.133 E0.66134
G1 X-1.872 Y27.32 E0.66835
G1 X-1.786 Y27.501 E0.67544
G1 X-1.685 Y27.669 E0.68237
G1 X-1.568 Y27.83 E0.6894
G1 X-1.433 Y27.978 E0.69649
G1 X-1.285 Y28.113 E0.70357
G1 X-1.124 Y28.23 E0.71061
G1 X-.956 Y28.331 E0.71754
G1 X-.775 Y28.417 E0.72463
G1 X-.588 Y28.483 E0.73164
G1 X-.396 Y28.532 E0.73864
G1 X-.198 Y28.561 E0.74572
G1 X0.00 Y28.57 E0.75273
G1 X0.198 Y28.561 E0.75974
G1 X0.396 Y28.532 E0.76681
G1 X0.588 Y28.483 E0.77382
G1 X0.775 Y28.417 E0.78083
G1 X0.956 Y28.331 E0.78792
G1 X1.124 Y28.23 E0.79485
G1 X1.285 Y28.113 E0.80189
G1 X1.433 Y27.978 E0.80897
G1 X1.568 Y27.83 E0.81605
G1 X1.685 Y27.669 E0.82309
G1 X1.786 Y27.501 E0.83002
G1 X1.872 Y27.32 E0.83711
G1 X1.938 Y27.133 E0.84412
G1 X1.987 Y26.941 E0.85113
G1 X2.016 Y26.743 E0.8582
G1 X2.025 Y26.545 E0.86521
G1 X2.016 Y26.347 E0.87222
G1 X1.987 Y26.149 E0.87929
G1 X1.938 Y25.957 E0.8863
G1 X1.872 Y25.77 E0.89331
G1 X1.786 Y25.589 E0.9004
G1 X1.685 Y25.421 E0.90733
G1 X1.568 Y25.26 E0.91437
G1 X1.433 Y25.112 E0.92145
G1 X1.285 Y24.977 E0.92853
G1 X1.124 Y24.86 E0.93557
G1 X0.956 Y24.759 E0.9425
G1 X0.775 Y24.673 E0.94959
G1 X0.588 Y24.607 E0.9566
G1 X0.396 Y24.558 E0.96361
G1 X0.198 Y24.529 E0.97068
G1 X0.00 Y24.52 E0.97769
M204 S5000
M205 X30 Y30
G0 F6514.3 X0.00 Y24.87
M204 S3000
M205 X20 Y20
;TYPE:WALL-OUTER
G1 F1200 X-.164 Y24.878 E0.9835
G1 X-.328 Y24.902 E0.98936
G1 X-.486 Y24.942 E0.99512
G1 X-.641 Y24.997 E1.00094
G1 X-.79 Y25.068 E1.00677
G1 X-.93 Y25.152 E1.01255
G1 X-1.063 Y25.249 E1.01837
G1 X-1.185 Y25.36 E1.0242
G1 X-1.296 Y25.482 E1.03003
G1 X-1.393 Y25.615 E1.03585
G1 X-1.477 Y25.755 E1.04163
G1 X-1.548 Y25.904 E1.04746
G1 X-1.603 Y26.059 E1.05328
G1 X-1.643 Y26.217 E1.05904
G1 X-1.667 Y26.381 E1.0649
G1 X-1.675 Y26.545 E1.07071
G1 X-1.667 Y26.709 E1.07651
G1 X-1.643 Y26.873 E1.08237
G1 X-1.603 Y27.031 E1.08814
G1 X-1.548 Y27.186 E1.09395
G1 X-1.477 Y27.335 E1.09979
G1 X-1.393 Y27.475 E1.10556
G1 X-1.296 Y27.608 E1.11138
G1 X-1.185 Y27.73 E1.11721
G1 X-1.063 Y27.841 E1.12305
G1 X-.93 Y27.938 E1.12887
G1 X-.79 Y28.022 E1.13464
G1 X-.641 Y28.093 E1.14048
G1 X-.486 Y28.148 E1.14629
G1 X-.328 Y28.188 E1.15206
G1 X-.164 Y28.212 E1.15792
G1 X0.00 Y28.22 E1.16372
G1 X0.164 Y28.212 E1.16953
G1 X0.328 Y28.188 E1.17539
G1 X0.486 Y28.148 E1.18115
G1 X0.641 Y28.093 E1.18697
G1 X0.79 Y28.022 E1.1928
G1 X0.93 Y27.938 E1.19858
G1 X1.063 Y27.841 E1.2044
G1 X1.185 Y27.73 E1.21023
G1 X1.296 Y27.608 E1.21606
G1 X1.393 Y27.475 E1.22188
G1 X1.477 Y27.335 E1.22766
G1 X1.548 Y27.186 E1.23349
G1 X1.603 Y27.031 E1.23931
G1 X1.643 Y26.873 E1.24507
G1 X1.667 Y26.709 E1.25093
G1 X1.675 Y26.545 E1.25674
G1 X1.667 Y26.381 E1.26254
G1 X1.643 Y26.217 E1.2684
G1 X1.603 Y26.059 E1.27417
G1 X1.548 Y25.904 E1.27998
G1 X1.477 Y25.755 E1.28582
G1 X1.393 Y25.615 E1.29159
G1 X1.296 Y25.482 E1.29741
G1 X1.185 Y25.36 E1.30324
G1 X1.063 Y25.249 E1.30908
G1 X0.93 Y25.152 E1.3149
G1 X0.79 Y25.068 E1.32067
G1 X0.641 Y24.997 E1.32651
G1 X0.486 Y24.942 E1.33232
G1 X0.328 Y24.902 E1.33808
G1 X0.164 Y24.878 E1.34395
G1 X0.00 Y24.87 E1.34975
M204 S5000
M205 X30 Y30
G0 F6514.3 X-.164 Y24.878
G0 X-.174 Y24.879
G0 X-.229 Y24.497
G0 X-.237 Y24.433
G0 X-1.146 Y24.827
G0 X-1.599 Y25.235
G0 X-1.976 Y25.946
G0 X-2.065 Y26.545
G0 X-1.976 Y27.144
G0 X-1.763 Y27.546
G0 X0.00 Y30.67
M204 S3000
M205 X20 Y20
;TYPE:WALL-INNER
G1 F1200 X-5.356 Y30.537 E1.5392
G1 X-10.713 Y30.142 E1.72913
G1 X-15.999 Y29.49 E1.91746
G1 X-21.286 Y28.573 E2.1072
G1 X-26.519 Y27.399 E2.29683
G1 X-27.392 Y27.157 E2.32887
G1 X-18.834 Y-4.781 E3.49803
G1 X-18.789 Y-4.951 E3.50424
G1 X-18.62 Y-4.904 E3.50824
G1 X-18.436 Y-4.853 E3.51499
G1 X-14.802 Y-4.038 E3.64668
G1 X-11.133 Y-3.402 E3.77835
G1 X-7.436 Y-2.946 E3.91006
G1 X-3.723 Y-2.67 E4.04172
G1 X0.00 Y-2.58 E4.1734
G1 X3.723 Y-2.67 E4.30508
G1 X7.436 Y-2.946 E4.43674
G1 X11.133 Y-3.402 E4.56845
G1 X14.802 Y-4.038 E4.70012
G1 X18.436 Y-4.853 E4.83181
G1 X18.62 Y-4.904 E4.83856
G1 X18.789 Y-4.951 E4.84476
G1 X18.834 Y-4.781 E4.84877
G1 X27.392 Y27.157 E6.01793
G1 X26.519 Y27.399 E6.04996
G1 X21.286 Y28.573 E6.2396
G1 X15.999 Y29.49 E6.42933
G1 X10.713 Y30.142 E6.61766
G1 X5.356 Y30.537 E6.8076
G1 X0.00 Y30.67 E6.99704
M204 S5000
M205 X30 Y30
G0 F6514.3 X0.00 Y31.02
M204 S3000
M205 X20 Y20
G1 F1200 X-5.37 Y30.887 E7.18698
G1 X-10.741 Y30.491 E7.37742
G1 X-16.059 Y29.835 E7.56688
G1 X-21.362 Y28.915 E7.7572
G1 X-26.596 Y27.74 E7.94688
G1 X-27.82 Y27.401 E7.99179
G1 X-19.081 Y-5.213 E9.18569
G1 X-19.036 Y-5.383 E9.19191
G1 X-18.867 Y-5.336 E9.1959
G1 X-18.351 Y-5.193 E9.21484
G1 X-14.734 Y-4.381 E9.34591
G1 X-11.082 Y-3.748 E9.47697
G1 X-7.402 Y-3.294 E9.60808
G1 X-3.706 Y-3.02 E9.73913
G1 X0.00 Y-2.93 E9.87021
G1 X3.706 Y-3.02 E10.0013
G1 X7.402 Y-3.294 E10.13234
G1 X11.082 Y-3.748 E10.26345
G1 X14.734 Y-4.381 E10.39451
G1 X18.351 Y-5.193 E10.52559
G1 X18.867 Y-5.336 E10.54452
G1 X19.036 Y-5.383 E10.55073
G1 X19.081 Y-5.213 E10.55473
G1 X27.82 Y27.401 E11.74864
G1 X27.486 Y27.493 E11.76089
G1 X26.612 Y27.735 E11.79295
G1 X26.596 Y27.74 E11.79355
G1 X21.362 Y28.915 E11.98323
G1 X16.059 Y29.835 E12.17354
G1 X10.741 Y30.491 E12.36301
G1 X5.37 Y30.887 E12.55344
G1 X0.00 Y31.02 E12.74338
M204 S5000
M205 X30 Y30
G0 F6514.3 X0.00 Y31.37
M204 S3000
M205 X20 Y20
;TYPE:WALL-OUTER
G1 F1200 X-5.384 Y31.237 E12.93381
G1 X-10.769 Y30.84 E13.12474
G1 X-16.119 Y30.18 E13.31535
G1 X-21.422 Y29.26 E13.50566
G1 X-26.681 Y28.079 E13.69625
G1 X-28.248 Y27.645 E13.75375
G1 X-19.328 Y-5.644 E14.97236
G1 X-19.283 Y-5.814 E14.97858
G1 X-19.114 Y-5.768 E14.98257
G1 X-18.266 Y-5.533 E15.01368
G1 X-14.666 Y-4.724 E15.14415
G1 X-11.031 Y-4.094 E15.2746
G1 X-7.368 Y-3.642 E15.40511
G1 X-3.689 Y-3.37 E15.53555
G1 X0.00 Y-3.28 E15.66603
G1 X3.689 Y-3.37 E15.79651
G1 X7.368 Y-3.642 E15.92695
G1 X11.031 Y-4.094 E16.05746
G1 X14.666 Y-4.724 E16.18791
G1 X18.266 Y-5.533 E16.31838
G1 X19.114 Y-5.768 E16.34949
G1 X19.283 Y-5.814 E16.35569
G1 X19.328 Y-5.644 E16.35969
G1 X28.248 Y27.645 E17.57831
G1 X26.681 Y28.079 E17.6358
G1 X21.422 Y29.26 E17.82639
G1 X16.119 Y30.18 E18.0167
G1 X10.769 Y30.84 E18.20731
G1 X5.384 Y31.237 E18.39824
G1 X0.00 Y31.37 E18.58867
M204 S5000
M205 X30 Y30
G0 F6514.3 X-.174 Y31.366
G0 X-.164 Y30.982
G0 X0.00 Y30.33
M204 S3000
M205 X20 Y20
;TYPE:SKIN
G1 F1200 X-5.331 Y30.197 E18.77723
G1 X-10.688 Y29.802 E18.96717
G1 X-15.95 Y29.153 E19.15464
G1 X-21.22 Y28.239 E19.34377
G1 X-26.432 Y27.07 E19.53264
G1 X-26.977 Y26.919 E19.55264
G1 X-18.55 Y-4.532 E20.70397
G1 X-14.868 Y-3.704 E20.83741
G1 X-11.183 Y-3.066 E20.96965
G1 X-7.469 Y-2.608 E21.10197
G1 X-3.74 Y-2.33 E21.23419
G1 X0.00 Y-2.24 E21.36648
G1 X3.74 Y-2.33 E21.49876
G1 X7.469 Y-2.608 E21.63098
G1 X11.183 Y-3.066 E21.7633
G1 X14.868 Y-3.704 E21.89554
G1 X18.55 Y-4.532 E22.02899
G1 X26.977 Y26.919 E23.18031
G1 X26.432 Y27.07 E23.20031
G1 X21.22 Y28.239 E23.38918
G1 X15.95 Y29.153 E23.57831
G1 X10.688 Y29.802 E23.76578
G1 X5.331 Y30.197 E23.95572
G1 X0.00 Y30.33 E24.14428
M204 S5000
M205 X30 Y30
G0 F6514.3 X0.00 Y29.26
M204 S3000
M205 X20 Y20
G1 F1200 X0.262 Y29.248 E24.15355
G1 X0.532 Y29.21 E24.1632
G1 X0.789 Y29.144 E24.17258
G1 X1.039 Y29.056 E24.18195
G1 X1.283 Y28.939 E24.19152
G1 X1.505 Y28.806 E24.20067
G1 X1.721 Y28.649 E24.21011
G1 X1.922 Y28.467 E24.2197
G1 X2.104 Y28.266 E24.22929
G1 X2.261 Y28.05 E24.23873
G1 X2.394 Y27.828 E24.24788
G1 X2.511 Y27.584 E24.25745
G1 X2.599 Y27.334 E24.26682
G1 X2.665 Y27.077 E24.2762
G1 X2.703 Y26.807 E24.28584
G1 X2.715 Y26.545 E24.29512
G1 X2.703 Y26.283 E24.30439
G1 X2.665 Y26.013 E24.31403
G1 X2.599 Y25.756 E24.32341
G1 X2.511 Y25.506 E24.33279
G1 X2.394 Y25.262 E24.34235
G1 X2.261 Y25.04 E24.3515
G1 X2.104 Y24.824 E24.36095
G1 X1.922 Y24.623 E24.37053
G1 X1.721 Y24.441 E24.38012
G1 X1.505 Y24.284 E24.38956
G1 X1.283 Y24.151 E24.39872
G1 X1.039 Y24.034 E24.40828
G1 X0.789 Y23.946 E24.41766
G1 X0.532 Y23.88 E24.42704
G1 X0.262 Y23.842 E24.43668
G1 X0.00 Y23.83 E24.44595
G1 X-.262 Y23.842 E24.45523
G1 X-.532 Y23.88 E24.46487
G1 X-.789 Y23.946 E24.47425
G1 X-1.039 Y24.034 E24.48362
G1 X-1.283 Y24.151 E24.49319
G1 X-1.505 Y24.284 E24.50234
G1 X-1.721 Y24.441 E24.51178
G1 X-1.922 Y24.623 E24.52137
G1 X-2.104 Y24.824 E24.53096
G1 X-2.261 Y25.04 E24.5404
G1 X-2.394 Y25.262 E24.54955
G1 X-2.511 Y25.506 E24.55912
G1 X-2.599 Y25.756 E24.56849
G1 X-2.665 Y26.013 E24.57787
G1 X-2.703 Y26.283 E24.58752
G1 X-2.715 Y26.545 E24.59679
G1 X-2.703 Y26.807 E24.60606
G1 X-2.665 Y27.077 E24.6157
G1 X-2.599 Y27.334 E24.62509
G1 X-2.511 Y27.584 E24.63446
G1 X-2.394 Y27.828 E24.64403
G1 X-2.261 Y28.05 E24.65318
G1 X-2.104 Y28.266 E24.66262
G1 X-1.922 Y28.467 E24.67221
G1 X-1.721 Y28.649 E24.6818
G1 X-1.505 Y28.806 E24.69124
G1 X-1.283 Y28.939 E24.70039
G1 X-1.039 Y29.056 E24.70996
G1 X-.789 Y29.144 E24.71933
G1 X-.532 Y29.21 E24.72871
G1 X-.262 Y29.248 E24.73835
G1 X0.00 Y29.26 E24.74763
M204 S5000
M205 X30 Y30
G0 F6514.3 X0.00 Y29.61
M204 S3000
M205 X20 Y20
G1 F1200 X0.294 Y29.597 E24.75803
G1 X0.6 Y29.554 E24.76896
G1 X0.891 Y29.479 E24.77958
G1 X1.173 Y29.38 E24.79015
G1 X1.449 Y29.248 E24.80097
G1 X1.698 Y29.098 E24.81125
G1 X1.942 Y28.921 E24.82191
G1 X2.17 Y28.715 E24.83277
G1 X2.376 Y28.487 E24.84364
G1 X2.553 Y28.243 E24.8543
G1 X2.703 Y27.994 E24.86458
G1 X2.835 Y27.718 E24.87539
G1 X2.934 Y27.436 E24.88596
G1 X3.009 Y27.145 E24.89659
G1 X3.052 Y26.839 E24.90751
G1 X3.065 Y26.545 E24.91792
G1 X3.052 Y26.251 E24.92833
G1 X3.009 Y25.945 E24.93925
G1 X2.934 Y25.654 E24.94988
G1 X2.835 Y25.372 E24.96045
G1 X2.703 Y25.096 E24.97126
G1 X2.553 Y24.847 E24.98154
G1 X2.376 Y24.603 E24.9922
G1 X2.17 Y24.375 E25.00307
G1 X1.942 Y24.169 E25.01393
G1 X1.698 Y23.992 E25.02459
G1 X1.449 Y23.842 E25.03487
G1 X1.173 Y23.71 E25.04569
G1 X0.891 Y23.611 E25.05626
G1 X0.6 Y23.536 E25.06688
G1 X0.294 Y23.493 E25.07781
G1 X0.00 Y23.48 E25.08821
G1 X-.294 Y23.493 E25.09862
G1 X-.6 Y23.536 E25.10955
G1 X-.891 Y23.611 E25.12017
G1 X-1.173 Y23.71 E25.13074
G1 X-1.449 Y23.842 E25.14156
G1 X-1.698 Y23.992 E25.15184
G1 X-1.942 Y24.169 E25.1625
G1 X-2.17 Y24.375 E25.17336
G1 X-2.376 Y24.603 E25.18423
G1 X-2.553 Y24.847 E25.19489
G1 X-2.703 Y25.096 E25.20516
G1 X-2.835 Y25.372 E25.21598
G1 X-2.934 Y25.654 E25.22655
G1 X-3.009 Y25.945 E25.23718
G1 X-3.052 Y26.251 E25.2481
G1 X-3.065 Y26.545 E25.25851
G1 X-3.052 Y26.839 E25.26891
G1 X-3.009 Y27.145 E25.27984
G1 X-2.934 Y27.436 E25.29047
G1 X-2.835 Y27.718 E25.30103
G1 X-2.703 Y27.994 E25.31185
G1 X-2.553 Y28.243 E25.32213
G1 X-2.376 Y28.487 E25.33279
G1 X-2.17 Y28.715 E25.34365
G1 X-1.942 Y28.921 E25.35452
G1 X-1.698 Y29.098 E25.36518
G1 X-1.449 Y29.248 E25.37546
G1 X-1.173 Y29.38 E25.38628
G1 X-.891 Y29.479 E25.39684
G1 X-.6 Y29.554 E25.40747
G1 X-.294 Y29.597 E25.4184
G1 X0.00 Y29.61 E25.4288
M204 S5000
M205 X30 Y30
G0 F6514.3 X0.00 Y29.98
M204 S3000
M205 X20 Y20
G1 F1200 X-5.317 Y29.847 E25.61687
G1 X-10.66 Y29.453 E25.80631
G1 X-15.89 Y28.808 E25.99264
G1 X-21.144 Y27.897 E26.18119
G1 X-26.355 Y26.729 E26.37002
G1 X-26.549 Y26.675 E26.37714
G1 X-18.299 Y-4.117 E27.50434
G1 X-14.936 Y-3.361 E27.62622
G1 X-11.234 Y-2.72 E27.75907
G1 X-7.503 Y-2.26 E27.892
G1 X-3.757 Y-1.98 E28.02483
G1 X0.00 Y-1.89 E28.15771
G1 X3.757 Y-1.98 E28.29059
G1 X7.503 Y-2.26 E28.42342
G1 X11.234 Y-2.72 E28.55635
G1 X14.936 Y-3.361 E28.6892
G1 X18.299 Y-4.117 E28.81108
G1 X26.549 Y26.675 E29.93828
G1 X26.355 Y26.728 E29.94539
G1 X21.144 Y27.897 E30.13423
G1 X15.89 Y28.808 E30.32278
G1 X10.66 Y29.453 E30.50911
G1 X5.317 Y29.847 E30.69855
G1 X0.00 Y29.98 E30.88662
M204 S5000
M205 X30 Y30
G0 F6514.3 X-26.261 Y26.206
M204 S3000
M205 X20 Y20
G1 F1200 X-25.769 Y26.697 E30.91119
M204 S5000
M205 X30 Y30
G0 F6514.3 X-25.131 Y26.84
M204 S3000
M205 X20 Y20
G1 F1200 X-26.156 Y25.815 E30.96245
M204 S5000
M205 X30 Y30
G0 F6514.3 X-26.051 Y25.425
M204 S3000
M205 X20 Y20
G1 F1200 X-24.493 Y26.983 E31.04036
M204 S5000
M205 X30 Y30
G0 F6514.3 X-23.855 Y27.126
M204 S3000
M205 X20 Y20
G1 F1200 X-25.947 Y25.034 E31.14497
M204 S5000
M205 X30 Y30
G0 F6514.3 X-25.843 Y24.644
M204 S3000
M205 X20 Y20
G1 F1200 X-23.217 Y27.27 E31.27629
M204 S5000
M205 X30 Y30
G0 F6514.3 X-22.579 Y27.413
M204 S3000
M205 X20 Y20
G1 F1200 X-25.738 Y24.253 E31.43428
M204 S5000
M205 X30 Y30
G0 F6514.3 X-25.634 Y23.863
M204 S3000
M205 X20 Y20
G1 F1200 X-21.94 Y27.556 E31.61898
M204 S5000
M205 X30 Y30
G0 F6514.3 X-21.303 Y27.699
M204 S3000
M205 X20 Y20
G1 F1200 X-25.529 Y23.473 E31.83031
M204 S5000
M205 X30 Y30
G0 F6514.3 X-25.424 Y23.082
M204 S3000
M205 X20 Y20
G1 F1200 X-20.692 Y27.815 E32.06696
M204 S5000
M205 X30 Y30
G0 F6514.3 X-20.093 Y27.919
M204 S3000
M205 X20 Y20
G1 F1200 X-25.32 Y22.692 E32.32834
M204 S5000
M205 X30 Y30
G0 F6514.3 X-25.215 Y22.302
M204 S3000
M205 X20 Y20
G1 F1200 X-19.494 Y28.022 E32.6144
M204 S5000
M205 X30 Y30
G0 F6514.3 X-18.896 Y28.126
M204 S3000
M205 X20 Y20
